!!!!SEGMENT: pl-wtm--a-43-332-99_kagan-jakub--mary.krn
!!!cenid: 19xx:21
!!!COM: Kagan, Jakub
!!!COM-rismID: pe50046719
!!!CDT: 1896/02/07-1942
!!!CNT: Polish
!!!OTL: Mary
!!!PDT:
!!!AGN: Secular
!!!YEC: Copyright 2022 Narodowy Instytut Fryderyka Chopina (https://polishscores.org)
!!!YEM: License CC-BY-4.0 (https://creativecommons.org/licenses/by/4.0)
!!!SMS-siglum: PL-Wtm
!!!SMS-shelfmark: A.43.332/99
!!!SMS-variant:
!!!SMS-altvar:
!!!SMS-shelfwork: W
!!!NIFC-rismSourceID: 1001185730
!!!NIFC-rismChildID: 1001185730
!!!NIFC-islandoraID: pl-wtm:70060
!!!URL-pdf-islandora: https://repozytorium.nifc.pl/islandora/object/pl-wtm%3A70060/datastream/PDF/view
!!!URL-scan: https://polish.musicsources.pl/pl/lokalizacje/galeria/druki-muzyczne/22497/2 @EN{Scan on Polish Music Sources Website} @PL{Skany w portalu Dziedzictwo Muzyki Polskiej w otwartym dostępie}
!!!IIIF:
!!!ONB-nifc:
!!!AIN: 2 forte
!!!key: D
**kern	**kern	**dynam
*part2	*part1	*part1
*staff2	*staff1	*
*I"Piano	*I"Piano	*
*I'P-no	*I'P-no	*
*ICklav	*ICklav	*
*Iforte	*Iforte	*
*clefF4	*clefG2	*
*k[f#c#]	*k[f#c#]	*
*D:	*D:	*
*M4/4	*M4/4	*
*omet(c)	*omet(c)	*
*>[A,A1,A,B,C,A,A1,B]	*	*
=1	=1	=1
*>A	*	*
!	!LO:TX:B:a:t=Żwawo.	!
4EE/ 4E	8a\ 8cc# 8aa	.
.	4a^^\ 4cc# 4aa	ff
4A\ 4c# 4g	.	.
.	4a\ 4cc# 4aa	<
4AAA/ 4AA	.	.
.	(8b-X\L 8bb-X	.
4A\ 4c# 4g	8bn\ 8bbn	.
.	8ccn\J) 8cccn	.
=2	=2	=2
4EE/ 4E	8cc#\ 8aa 8ccc#	.
.	4cc#\ 4aa 4ccc#	.
4A\ 4c# 4g	.	.
.	4cc#\ 4aa 4ccc#	[
4AAA/ 4AA	.	.
.	(8dd\L 8ddd	.
4A\ 4c# 4g	8ee\ 8eee	.
.	8ee#X\J) 8eee#X	.
=3	=3	=3
4DD/ 4D	8ff#\ 8fff#	.
.	4ff#^^\ 4ddd 4fff#	.
4A\ 4d 4f#	.	.
.	8ee#X\ 8eee#X	<
4AAA/ 4AA	8ff#\L 8ddd 8fff#	.
.	(8dd\ 8ddd	.
4A\ 4d 4f#	8cc#\ 8ccc#	.
.	8b\J) 8bb	[[
=4	=4	=4
*	*^	*
4DD/ 4D	1a 1aa	4r	.
4A\ 4d 4f#	.	4dd\ 4ff#	.
4AAA/ 4AA	.	4r	.
4A\ 4d 4f#	.	4dd\ 4ff#	.
*	*v	*v	*
!!LO:LB:g=original
=5	=5	=5
4EE/ 4E	8gg\ 8ccc# 8ggg	.
.	4gg^^\ 4ccc# 4ggg	.
4A\ 4c# 4g	.	.
.	8ff#\ 8fff#	.
4AAA/ 4AA	8gg^^\L 8ggg	.
.	(8ee\ 8eee	.
4A\ 4c# 4g	8cc#\ 8ccc#	.
.	8b\J) 8bb	.
=6	=6	=6
4CC#/ 4C#	4a\ 4aa	<
4A\ 4c# 4g	4cc#\ 4ccc#	.
4AAA/ 4AA	4dd\ 4ddd	.
4A\ 4c# 4g	4ee\ 4eee	[[
=7	=7	=7
4DD/ 4D	8ff#\ 8ddd 8fff#	.
.	4ff#^^\ 4ddd 4fff#	.
4A\ 4d 4f#	.	.
.	8ee#X\ 8eee#X	.
4AAA/ 4AA	8ff#\L 8ddd 8fff#	.
.	(8dd\ 8ddd	.
4A\ 4d 4f#	8cc#\ 8ccc#	.
.	8b\J) 8bb	.
=8	=8	=8
4DD/ 4D	4a\ 4aa	.
4AAA/ 4AA	4cc#\ 4ccc#	.
4BBB/ 4BB	4b\ 4bb	.
4BBB#X/ 4BB#X	4b-X\ 4bb-X	.
!!LO:LB:g=original
=9	=9	=9
4CC#/ 4C#	8a\ 8cc# 8aa	f
.	4a^^\ 4cc# 4aa	.
4A\ 4c# 4g	.	.
.	8a\ 8cc# 8aa	.
4AAA/ 4AA	8a\L 8cc# 8aa	<
.	(8b-X\ 8bb-X	.
4A\ 4c# 4g	8bn\ 8bbn	.
.	8ccn\J) 8cccn	[[
=10	=10	=10
4EE/ 4E	8cc#\ 8aa 8ccc#	.
.	4cc#^^\ 4aa 4ccc#	.
4A\ 4c# 4g	.	.
.	4cc#\ 4aa 4ccc#	<
4AAA/ 4AA	.	.
.	(8ddL\ 8ddd	.
4A\ 4c# 4g	8ee\ 8eee	.
.	8ee#X\J) 8eee#X	[[
=11	=11	=11
4DD/ 4D	8ff#\ 8ddd 8fff#	.
.	4ff#\ 4ddd 4fff#	.
4A\ 4d 4f#	.	.
.	8ee#X\ 8eee#X	.
4AAA/ 4AA	(8ff#\L 8ddd 8fff#	.
.	8dd\ 8ddd	.
4A\ 4d 4f#	8cc#\ 8ccc#	.
.	8b\J) 8bb	.
=12	=12	=12
*	*^	*
4DD/ 4D	1a 1aa	4r	.
4A\ 4d 4f#	.	4dd\ 4ff#	.
4AAA/ 4AA	.	4r	.
4A\ 4d 4f#	.	4dd\ 4ff#	.
*	*v	*v	*
!!LO:LB:g=original
=13	=13	=13
*	*8va	*
4BBB/ 4BB	8aa\ 8ddd#X 8aaa	ff
.	4aa\ 4ddd# 4aaa	.
4F#\ 4B 4d#X	.	.
.	4aa\ 4ddd# 4aaa	.
4DD#X/ 4D#X	.	.
.	8gg\L 8ggg	.
4F#\ 4B 4d#X	8ff#\ 8fff#	.
.	8aa\J 8aaa	.
=14	=14	=14
4EE/ 4E	4aa\ 4aaa	.
2E\ 2B 2e	4gg\ 4ggg	.
.	4ee\ 4eee	.
4G#X\ 4B 4d	4ee#X\ 4eee#X	.
*	*X8va	*
=15	=15	=15
4AAA/ 4AA	8ff#\ 8ddd 8fff#	.
.	4ff#\ 4ddd 4fff#	.
4F#\ 4A 4d	.	.
.	8ff#\ 8ddd 8fff#	.
4AAA/ 4AA	4ff#\ 4ddd 4fff#	.
4G\ 4A 4c#	4ee\ 4eee	.
=16	=16	=16
*>A1	*	*
4DD/ 4FF# 4AA 4D	4dd\ 4ff# 4aa 4ddd	.
4r	4r	.
*	*8va	*
4DD/ 4FF# 4BB 4D	4ddd\ 4fff# 4aaa 4dddd	.
4r	4r	.
*	*X8va	*
=17:|!	=17:|!	=17:|!
*>B	*	*
4DD/ 4FF# 4AA 4D	4dd\ 4ff# 4aa 4ddd	.
4r	4r	.
*8ba	*8va	*
!	!LO:TX:b:t=Fine	!
4DDD/ 4FFF# 4BBB 4DD	4ddd\ 4fff# 4aaa 4dddd	.
4r	4r	.
*X8ba	*X8va	*
!!LO:LB:g=original
=18||	=18||	=18||
*>C	*	*
*	*^	*
2EE/ 2E	2A/ 2a	4r	.
.	.	4c#\ 4g	.
2DD#X/ 2D#X	2A/ 2a	4r	.
.	.	4cn\ 4f#	.
*	*v	*v	*
=19	=19	=19
4EE/ 4E	8r	.
.	4A^>/ 4a	.
4r	.	.
.	8B/ 8b	.
4AAA/ 4AA	8c#/L 8cc#	.
.	8B/J 8b	.
4r	4B-X/ 4b-X	.
=20	=20	=20
*	*^	*
2DD/ 2D	2A/ 2a	4r	.
.	.	4d\ 4f#	.
2CC#/ 2C#	2A/ 2a	4r	.
.	.	4d\ 4f#	.
*	*v	*v	*
=21	=21	=21
4DD/ 4D	8r	.
.	4A/ 4a	.
4r	.	.
.	8B/ 8b	.
4AAA/ 4AA	8d/L 8dd	.
.	8B/J 8b	.
4r	4A/ 4a	.
!!LO:PB:g=original
=22	=22	=22
4EE^/ 4E	4G^>/ 4g	.
4FF#^/ 4F#	4A^>/ 4a	.
4GG^/ 4G	4B^>/ 4b	.
4AA^\ 4A	4c#^>/ 4cc#	.
=23	=23	=23
4EE/ 4E	4r	.
4r	((2f#^\ 2a 2cc# 2ff#	.
4AAA/ 4AA	.	.
4r	4e/)) 4a 4cc# 4ee	.
=24	=24	=24
4DD^/ 4D	4F#^>/ 4f#	.
4EE^/ 4E	4G^>/ 4g	.
4EE#X^/ 4E#X	4G#X^>/ 4g#X	<
4FF#^/ 4F#	4A^>/ 4a	.
=25	=25	=25
4DD/ 4D	4r	.
4r	((2e^/ 2f# 2a 2ee	[ f
4AAA/ 4AA	.	.
4r	4d/)) 4f# 4a 4dd	.
=26	=26	=26
*	*^	*
2EE/ 2E	2A/ 2a	4r	p
.	.	4c#\ 4g	.
2DD#X/ 2D#X	2A/ 2a	4r	.
.	.	4cn\ 4f#	.
*	*v	*v	*
!!LO:LB:g=original
=27	=27	=27
4EE/ 4E	8r	.
.	4A^>/ 4a	.
4r	.	.
.	8B/ 8b	.
4AAA/ 4AA	8c#/L 8cc#	.
.	8B/J 8b	.
4r	4B-X/ 4b-X	.
=28	=28	=28
*	*^	*
2DD/ 2D	2A/ 2a	4r	.
.	.	4d\ 4f#	.
2CC#/ 2C#	2A/ 2a	4r	.
.	.	4d\ 4f#	.
*	*v	*v	*
=29	=29	=29
4DD/ 4D	8r	.
.	4A/ 4a	.
4r	.	.
.	8B/ 8b	.
4AAA/ 4AA	8d/L 8dd	.
.	8B/J 8b	.
4r	4A/ 4a	.
=30	=30	=30
*	*^	*
2GG/ 2G	2d/ 2dd	4r	.
.	.	4g\ 4b	.
2GG#X/ 2G#X	2d/ 2dd	4r	.
.	.	4fn\ 4b	.
*	*v	*v	*
!!LO:LB:g=original
=31	=31	=31
4AA\ 4A	8r	.
.	4d^>/ 4dd	.
4r	.	.
.	8e/ 8ee	.
4FF#/ 4F#	8f#\L 8ff#	.
.	8e\J 8ee	.
4r	4d/ 4dd	.
=32	=32	=32
4EE/ 4E	8r	f
.	(8g\L 8ff#	.
4r	8cc#\ 8aa	.
.	8g\J) 8ff#	.
4AAA/ 4AA	4cc#\ 4aa	.
4r	4g\ 4ff#	.
=33	=33	=33
8DD/ 8D	8f#/ 8dd	<
8r	8r	.
4.d\	4.dd^\ 4.ddd	.
(8c#\L	(8cc#\L 8ccc#	.
8B\	8b\ 8bb	.
8B-X\J)	8b-X\J) 8bb-X	[[
=34	=34	=34
*	*^	*
4EE/ 4E	2a/ 2aa	4r	f
4A\ 4c# 4g	.	4cc#\ 4gg	.
4DD#X/ 4D#X	2a/ 2aa	4r	.
4A\ 4cn 4f#	.	4cc#\ 4ff#	.
*	*v	*v	*
!!LO:LB:g=original
=35	=35	=35
4EE/ 4E	8r	.
.	4a^\ 4aa	.
4A\ 4c# 4g	.	.
.	8b\ 8bb	.
4AAA/ 4AA	8cc#\L 8ccc#	.
.	8b\J 8bb	.
4A\ 4c# 4g	4b-X\ 4bb-X	.
=36	=36	=36
*	*^	*
4DD/ 4D	2a/ 2aa	4r	.
4A\ 4d 4f#	.	4dd\ 4ff#	.
4CC#/ 4C#	2a/ 2aa	4r	.
4A\ 4d 4f#	.	4dd\ 4ff#	.
*	*v	*v	*
=37	=37	=37
4DD/ 4D	8r	.
.	4a^\ 4aa	.
4A\ 4d 4f#	.	.
.	8b\ 8bb	.
4AAA/ 4AA	8dd\L 8ddd	.
.	8b\J 8bb	.
4A\ 4d 4f#	4a\ 4aa	.
=38	=38	=38
4EE^/ 4E	4g^\ 4gg	.
4FF#^/ 4F#	4a^\ 4aa	.
4GG^/ 4G	4b^\ 4bb	.
4AA^\ 4A	4cc#^\ 4ccc#	.
=39	=39	=39
4EE/ 4E	4r	.
4A\ 4c# 4g	((2ff#\ 2aa 2ccc# 2fff#	.
4AAA/ 4AA	.	.
4A\ 4c# 4g	4ee\)) 4aa 4ccc# 4eee	.
!!LO:LB:g=original
=40	=40	=40
4DD^/ 4D	4f#^\ 4ff#	.
4EE^/ 4E	4g^\ 4gg	.
4EE#X^/ 4E#X	4g#X^\ 4gg#X	.
4FF#^/ 4F#	4a^\ 4aa	.
=41	=41	=41
4DD/ 4D	4r	.
4A\ 4d 4f#	((2ee^\ 2ff# 2aa 2eee	.
4AAA/ 4AA	.	.
4A\ 4d 4f#	4dd\)) 4ff# 4aa 4ddd	.
=42	=42	=42
*	*^	*
4EE/ 4E	2a/ 2aa	4r	.
4A\ 4c# 4g	.	4cc#\ 4gg	.
4DD#X/ 4D#X	2a/ 2aa	4r	.
4A\ 4cn 4g	.	4ccn\ 4ff#	.
*	*v	*v	*
=43	=43	=43
4EE/ 4E	8r	.
.	8a\ 8aa	.
4A\ 4c# 4g	4b\ 4bb	.
4AAA/ 4AA	8cc#\L 8ccc#	.
.	8b\J 8bb	.
4A\ 4c# 4g	4b-X\ 4bb-X	.
=44	=44	=44
*	*^	*
4DD/ 4D	2a/ 2aa	4r	.
4A\ 4d 4f#	.	4dd\ 4ff#	.
4CC#/ 4C#	2a/ 2aa	4r	.
4A\ 4d 4f#	.	4dd\ 4ff#	.
*	*v	*v	*
!!LO:LB:g=original
=45	=45	=45
4DD/ 4D	8r	.
.	4a^\ 4aa	.
4A\ 4d 4f#	.	.
.	8b\ 8bb	.
4AAA/ 4AA	8dd\L 8ddd	.
.	8b\J 8bb	.
4A\ 4d 4f#	4a\ 4aa	.
=46	=46	=46
*	*^	*
4GG/ 4G	2dd/ 2ddd	4r	.
4B\ 4d 4g	.	4gg\ 4bb	.
4GG#X/ 4G#X	2dd/ 2ddd	4r	.
4B\ 4d 4fn	.	4ffn\ 4bb	.
*	*v	*v	*
=47	=47	=47
4AA\ 4A	8r	.
.	4dd^\ 4ddd	.
4A\ 4d 4f#	.	.
.	8ee\ 8eee	.
4FF#/ 4F#	8ff#\L 8fff#	.
.	8ee\J 8eee	.
4A\ 4d 4f#	4dd\ 4ddd	.
=48	=48	=48
4EE/ 4E	8r	.
.	(8g\L 8ff#	.
4A\ 4c# 4g	8cc#\ 8aa	.
.	8g\J) 8ff#	.
4CC#/ 4C#	4cc#\ 4aa	.
4A\ 4c# 4g	4g\ 4ff#	.
=49	=49	=49
4DD/ 4D	4f#\ 4dd	.
4AAA/ 4AA	4r	.
4DDD/ 4DD	4dd\ 4ff# 4aa 4ddd	.
!	!LO:TX:b:t=D.C.	!
4r	4r	.
==	==	==
*-	*-	*-
!!!system-decoration: [(s1,s2)]
!!!RDF**kern: > = above
!!!RDF**kern: < = below
!!!ENC: Berenika Jozajtis
!!!END: 2023-08-27
!!!ENC: Leszek Kubiak
!!!END: 2023-09-28
